X: 1496
T: Nihâvent Seyir
C: Şefik Gürmeriç
O: Turkey
F: http://compmusic.upf.edu/node/140
N: nihavent--seyir--sofyan--1--sefik_gurmeric
N: makam= nihavent
N: form= seyir
N: usul= sofyan = 4/4
M: 4/4
L: 1/16
K: C _B _e  
Q: 1/4=60
%%MIDI tuningsystem comma53
G4 d8 c2B2  | c2d2 efed dedc BAG2  | \
w:   |   | 
z2g4gf f3e feed  | 
w:   | 
d6c2 B2c2 d4  | z4 c2d2 d2b2 a2g2  | \
w:   |   | 
g2f4g2 feed e4  | z4 d2e2 f2_a2 g2f2  | 
w:   |   | 
f2e2 e2d2 dcc=B c4  | z4 d2g2 ^f2g2 e2d2  | \
w:   |   | 
c3B A2c2 B8  | 
w:   | 
A2B2 c2e2 d2c2 B2A2  | G4 ^F2G2 A8  | \
w:   |   | 
z2B4A2 G4 d4  | c2B2 A2G2 ^F2E2 D4  | 
w:   |   | 
z2B4AG ^F2G2 ABAG  | G12 z4  | |


